images/themes/default/algorithms/mAlgorithmFillNoData.svg

<svg height="24" viewBox="0 0 6.35 6.35" width="24" xmlns="http://www.w3.org/2000/svg"><g fill-rule="evenodd" stroke="#000" stroke-width=".143"><path d="m.189.241h1.485v1.485h-1.485z" fill="#7c96a8" fill-opacity=".463"/><path d="m1.674.241h1.485v1.485h-1.485zm1.485 0h1.485v1.485h-1.485z" fill="#517083"/><path d="m4.644.241h1.485v1.485h-1.485z" fill="#7c96a8" fill-opacity=".463"/><path d="m.189 1.725h1.485v1.485h-1.485z" fill="#517083"/><path d="m1.674 1.725h1.485v1.485h-1.485z" fill="#7c96a8" fill-opacity=".463"/><path d="m3.159 1.725h1.485v1.485h-1.485zm1.485 0h1.485v1.485h-1.485zm-4.455 1.485h1.485v1.485h-1.485z" fill="#517083"/><path d="m1.674 3.21h1.485v1.485h-1.485zm1.485 0h1.485v1.485h-1.485z" fill="#517083"/><path d="m4.644 3.21h1.485v1.485h-1.485z" fill="#7c96a8" fill-opacity=".463"/><path d="m.189 4.695h1.485v1.485h-1.485z" fill="#517083"/><path d="m1.674 4.695h1.485v1.485h-1.485zm1.485 0h1.485v1.485h-1.485z" fill="#7c96a8" fill-opacity=".463"/><path d="m4.644 4.695h1.485v1.485h-1.485z" fill="#517083"/></g></svg>

<svg xmlns="http://www.w3.org/2000/svg" width="24" height="24" viewBox="0 0 6.35 6.35"><path fill="#7c96a8" fill-opacity=".463" fill-rule="evenodd" stroke="#000" stroke-width=".143" d="M.189.241h1.485v1.485H.189z"/><path fill="#517083" fill-rule="evenodd" stroke="#000" stroke-width=".143" d="M1.674.241h1.485v1.485H1.674zM3.159.241h1.485v1.485H3.159z"/><path fill="#7c96a8" fill-opacity=".463" fill-rule="evenodd" stroke="#000" stroke-width=".143" d="M4.644.241h1.485v1.485H4.644z"/><path fill="#517083" fill-rule="evenodd" stroke="#000" stroke-width=".143" d="M.189 1.725h1.485V3.21H.189z"/><path fill="#7c96a8" fill-opacity=".463" fill-rule="evenodd" stroke="#000" stroke-width=".143" d="M1.674 1.725h1.485V3.21H1.674z"/><path fill="#517083" fill-rule="evenodd" stroke="#000" stroke-width=".143" d="M3.159 1.725h1.485V3.21H3.159zM4.644 1.725h1.485V3.21H4.644zM.189 3.21h1.485v1.485H.189z"/><path fill="#517083" fill-rule="evenodd" stroke="#000" stroke-width=".143" d="M1.674 3.21h1.485v1.485H1.674zM3.159 3.21h1.485v1.485H3.159z"/><path fill="#7c96a8" fill-opacity=".463" fill-rule="evenodd" stroke="#000" stroke-width=".143" d="M4.644 3.21h1.485v1.485H4.644z"/><path fill="#517083" fill-rule="evenodd" stroke="#000" stroke-width=".143" d="M.189 4.695h1.485V6.18H.189z"/><path fill="#7c96a8" fill-opacity=".463" fill-rule="evenodd" stroke="#000" stroke-width=".143" d="M1.674 4.695h1.485V6.18H1.674zM3.159 4.695h1.485V6.18H3.159z"/><path fill="#517083" fill-rule="evenodd" stroke="#000" stroke-width=".143" d="M4.644 4.695h1.485V6.18H4.644z"/></svg>
